X: 8
T: String Quartet No. 2 in G Major, Op. 18, No. 2 mvt 4
C: Ludwig van Beethoven
%%abc-version 2.0
%%abcx-abcm2ps-target-version 5.9.1 (29 Sep 2008)
%%abc-creator hum2abc beta
%%abcx-conversion-date 2021/01/27 10:01:12
%%abc-edited-by Craig Stuart Sapp
%%abcx-initial-encoding-date 2006/04/06/
%%gracespace 0 6 6
%%humdrum-veritas 989738836
%%humdrum-veritas-data 212774852
%%linebreak <none>
%%barnumbers 0
L: 1/8
M: 2/4
N: Derived from quartet02-4.krn
Q: "Allegro molto, quasi presto" 1/4=192
%%staves [1 2 3 4]
V: 1 clef=treble
V: 2 clef=treble
V: 3 clef=alto
V: 4 clef=bass
K: G
[V:1] z4 | 
[V:2] z4 | 
[V:3] z4 | 
[V:4] .D,2.G,2 | 
[V:1] z4 | 
[V:2] z4 | 
[V:3] z4 | 
[V:4] B,3A,/G,/ | 
[V:1] z4 | 
[V:2] z4 | 
[V:3] z4 | 
[V:4] .F,.G, .A,.B, | 
[V:1] z4 | 
[V:2] z4 | 
[V:3] z4 | 
[V:4] C2z2 | 
[V:1] .D2.G2 | 
[V:2] .B,2.D2 | 
[V:3] .B,2.B,2 | 
[V:4] .G,2.G,2 | 
[V:1] B3A/G/ | 
[V:2] G3F/E/ | 
[V:3] G,3A,/B,/ | 
[V:4] E,3F,/G,/ | 
[V:1] FA GE | 
[V:2] DD ^CC | 
[V:3] A,F, E,G, | 
[V:4] .A,.A,,.A,,.A,, | 
[V:1] D2z2 | 
[V:2] D2z2 | 
[V:3] F,2z2 | 
[V:4] D,2z2 | 
[V:1] z4 | 
[V:2] z4 | 
[V:3] z4 | 
[V:4] .D,2.A,2 | 
[V:1] z4 | 
[V:2] z4 | 
[V:3] z4 | 
[V:4] C3B,/A,/ | 
[V:1] z4 | 
[V:2] z4 | 
[V:3] z4 | 
[V:4] .G,.^G, .A,.^A, | 
[V:1] z4 | 
[V:2] z4 | 
[V:3] z4 | 
[V:4] B,2z2 | 
[V:1] .^d2.f2 | 
[V:2] .A2.^d2 | 
[V:3] .F2.A2 | 
[V:4] .B,2.B,2 | 
[V:1] a3g/f/ | 
[V:2] ^d3d | 
[V:3] c3B/A/ | 
[V:4] B,3B, | 
[V:1] .e.g .f.^d | 
[V:2] .B.B .c.B | 
[V:3] .G.G .A.A | 
[V:4] .E.E .B,.B, | 
[V:1] e2z2 | 
[V:2] B2z2 | 
[V:3] G2z2 | 
[V:4] E,2z2 | 
[V:1] =f2e/d/c/B/ | 
[V:2] =F4 | 
[V:3] D4 | 
[V:4] G,4 | 
[V:1] c/B/c/d/e2 | 
[V:2] E2z2 | 
[V:3] C2z2 | 
[V:4] C,2z2 | 
[V:1] c'3a/f/ | 
[V:2] F4- | 
[V:3] A,4- | 
[V:4] D,4- | 
[V:1] .d.d .d.d | 
[V:2] F.A, .B,.C | 
[V:3] A,.F, .G,.A, | 
[V:4] D,.C, .B,,.A,, | 
[V:1] .d2.g2 | 
[V:2] .D2.G2 | 
[V:3] B,B, B,B, | 
[V:4] G,,G, G,G, | 
[V:1] b3a/g/ | 
[V:2] B3A/G/ | 
[V:3] B,B, B,B, | 
[V:4] G,G, G,G, | 
[V:1] .f.g .a.b | 
[V:2] .F.G .A.B | 
[V:3] CC CC | 
[V:4] A,A, A,A, | 
[V:1] c'2z2 | 
[V:2] c2z2 | 
[V:3] CB, A,G, | 
[V:4] A,G, F,E, | 
[V:1] .d2.a2 | 
[V:2] .D2.A2 | 
[V:3] F,F, F,F, | 
[V:4] D,D, D,D, | 
[V:1] c'3b/a/ | 
[V:2] c3B/A/ | 
[V:3] F,F, F,D | 
[V:4] D,D, D,C, | 
[V:1] .d'.b .c'.a | 
[V:2] .d.B .c.A | 
[V:3] DG EF | 
[V:4] B,,E, C,D, | 
[V:1] .gb/g/d2- | 
[V:2] G2z B | 
[V:3] B,2z G | 
[V:4] G,,2z2 | 
[V:1] dd/^c/d2- | 
[V:2] c2z c | 
[V:3] F2z F | 
[V:4] z4 | 
[V:1] dd/e/ .cc/d/ | 
[V:2] .B.B .G.A | 
[V:3] .G.^E .=E.F | 
[V:4] z4 | 
[V:1] .BB/c/ .AA/B/ | 
[V:2] .B.G .E.F | 
[V:3] .G.E .C.D | 
[V:4] z4 | 
[V:1] GB/G/D2- | 
[V:2] B,2z B, | 
[V:3] G,2z G, | 
[V:4] G,,2z G, | 
[V:1] DD/^C/D2- | 
[V:2] C2z C | 
[V:3] A,2z A, | 
[V:4] F,2z F, | 
[V:1] DD/=C/ B,/C/B,/A,/ | 
[V:2] B,D DD | 
[V:3] G,B, B,B, | 
[V:4] G,,G, G,G, | 
[V:1] .G,G/F/ G/A/B/^c/ | 
[V:2] GG GG | 
[V:3] B,B, A,A, | 
[V:4] E,,E, E,E, | 
[V:1] .dd/^c/ d/e/f/d/ | 
[V:2] F2z2 | 
[V:3] A,2z2 | 
[V:4] D,2z2 | 
[V:1] .gg/f/ g/a/b/^c'/ | 
[V:2] z4 | 
[V:3] z4 | 
[V:4] z4 | 
[V:1] d' zz2 | 
[V:2] z [A,=F] [A,F][A,F] | 
[V:3] z D DD | 
[V:4] D,,2D,2 | 
[V:1] z4 | 
[V:2] [A,=F][A,F] [A,F][A,F] | 
[V:3] DD DD | 
[V:4] =F,3E,/D,/ | 
[V:1] a4- | 
[V:2] [A,G][A,G] [A,G][A,G] | 
[V:3] EE EE | 
[V:4] .^C,.D, .E,.F, | 
[V:1] a_b ab | 
[V:2] [A,G][A,G] [A,G][A,G] | 
[V:3] EE EE | 
[V:4] G,z2z | 
[V:1] a2z2 | 
[V:2] [A,E][A,E] [A,E][A,E] | 
[V:3] ^CC CC | 
[V:4] A,,2E,2 | 
[V:1] z4 | 
[V:2] [A,E][A,E] [A,E][A,E] | 
[V:3] ^CC CC | 
[V:4] G,3F,/E,/ | 
[V:1] d'4- | 
[V:2] [A,=F]F FF | 
[V:3] DD DD | 
[V:4] .D,.E, .=F,.G, | 
[V:1] d'^c' d'c' | 
[V:2] =FF FF | 
[V:3] DD DD | 
[V:4] A,z2z | 
[V:1] .d'2=f'2- | 
[V:2] =FF FF | 
[V:3] DD DD | 
[V:4] _B,,C, D,_E, | 
[V:1] f'e' =f'e' | 
[V:2] =FF FF | 
[V:3] DD DD | 
[V:4] =F,z2z | 
[V:1] =f'2=f2- | 
[V:2] =FF FF | 
[V:3] DD DD | 
[V:4] ^G,,A,, B,,^C, | 
[V:1] fe .=f.f | 
[V:2] =FE .F.F | 
[V:3] D^C .D.D | 
[V:4] D,2^G,,2 | 
[V:1] .e.Aa2- | 
[V:2] .E2z .^c | 
[V:3] .^C2z .A | 
[V:4] .A,,2z .A, | 
[V:1] aBb2- | 
[V:2] .D2z .d | 
[V:3] .^G2z .G | 
[V:4] .A,,2z .A, | 
[V:1] b^c^c'2- | 
[V:2] .E2z .e | 
[V:3] .G2z .G | 
[V:4] .A,,2z .A, | 
[V:1] c'dd'2- | 
[V:2] .F2z .f | 
[V:3] .F2z .F | 
[V:4] .A,,2z .A, | 
[V:1] d'e e'd' | 
[V:2] G2z2 | 
[V:3] ^C2z2 | 
[V:4] A,,2z2 | 
[V:1] .^c'.b .a.g | 
[V:2] z4 | 
[V:3] z4 | 
[V:4] z4 | 
[V:1] ff2f- | 
[V:2] .D.F .A.^c | 
[V:3] z4 | 
[V:4] z4 | 
[V:1] ff g/f/e/f/ | 
[V:2] .d.^c .d.B | 
[V:3] z4 | 
[V:4] z4 | 
[V:1] ge fd | 
[V:2] G2^G2 | 
[V:3] z4 | 
[V:4] z4 | 
[V:1] d^c BA | 
[V:2] A2z2 | 
[V:3] z4 | 
[V:4] z4 | 
[V:1] aa2a- | 
[V:2] .F.A .d.e | 
[V:3] .D.F .A.^c | 
[V:4] z4 | 
[V:1] aa b/a/g/a/ | 
[V:2] .f.e .f.d | 
[V:3] .d.^c .d.B | 
[V:4] z4 | 
[V:1] bg e^c | 
[V:2] .B.B .G.E | 
[V:3] .G.E .A.A, | 
[V:4] z4 | 
[V:1] d2z2 | 
[V:2] F2z2 | 
[V:3] D/F/E/D/ ^C/B,/A,/G,/ | 
[V:4] z4 | 
[V:1] z4 | 
[V:2] z4 | 
[V:3] F,F,2F,- | 
[V:4] .D,,.F,, .A,,.^C, | 
[V:1] z4 | 
[V:2] z4 | 
[V:3] F,F, G,/F,/E,/F,/ | 
[V:4] D,^C, D,D, | 
[V:1] .g.e .^c.G | 
[V:2] .^C.E .G.^c | 
[V:3] G,2z2 | 
[V:4] E,2z2 | 
[V:1] .G.G A/G/F/G/ | 
[V:2] eE EE | 
[V:3] z4 | 
[V:4] z4 | 
[V:1] A2z2 | 
[V:2] A,2z2 | 
[V:3] A,A,2A,- | 
[V:4] .F,,.A,, .D,.E, | 
[V:1] z4 | 
[V:2] z4 | 
[V:3] A,.A, B,/A,/G,/A,/ | 
[V:4] F,^E, F,F, | 
[V:1] .b.g .d.B | 
[V:2] .G,.B, .D.G | 
[V:3] B,2z2 | 
[V:4] G,2z2 | 
[V:1] .B.B ^c/B/A/B/ | 
[V:2] GG GG | 
[V:3] z4 | 
[V:4] z4 | 
[V:1] ^cc d/c/B/c/ | 
[V:2] G2G2 | 
[V:3] z2E2 | 
[V:4] A,2z2 | 
[V:1] dd e/d/^c/d/ | 
[V:2] z2F2 | 
[V:3] z2D2 | 
[V:4] A,2z2 | 
[V:1] ee f/e/d/e/ | 
[V:2] z2E2 | 
[V:3] z2^C2 | 
[V:4] A,2z2 | 
[V:1] ff g/f/e/f/ | 
[V:2] z2D2 | 
[V:3] z2B,2 | 
[V:4] A,2z2 | 
[V:1] g2e2 | 
[V:2] ^C4 | 
[V:3] A,4 | 
[V:4] A,,4 | 
[V:1] ^c4 | 
[V:2] G2E2 | 
[V:3] _B,2G,2 | 
[V:4] ^A,,2G,,2 | 
[V:1] ^c'2g2 | 
[V:2] ^C4 | 
[V:3] A,4 | 
[V:4] A,,4 | 
[V:1] e4 | 
[V:2] G2E2 | 
[V:3] _B,2G,2 | 
[V:4] _B,,2G,,2 | 
[V:1] e'2^c'2 | 
[V:2] ^C4 | 
[V:3] A,4 | 
[V:4] A,,4 | 
[V:1] g4 | 
[V:2] G2E2 | 
[V:3] _B,2G,2 | 
[V:4] _B,,2G,,2 | 
[V:1] g'2e'2 | 
[V:2] ^C4 | 
[V:3] A,4 | 
[V:4] A,,4 | 
[V:1] ^c'4 | 
[V:2] G2E2 | 
[V:3] _B,2G,2 | 
[V:4] _B,,2G,,2 | 
[V:1] =f'd' b^g | 
[V:2] [B,4D4]- | 
[V:3] ^G,4- | 
[V:4] ^G,,B,, D,^E, | 
[V:1] ^ed B^G | 
[V:2] [B,D]D2D- | 
[V:3] G,=B,D=F | 
[V:4] ^G,2z B,, | 
[V:1] A3F/D/ | 
[V:2] D.D .D.D | 
[V:3] .F.F, .F,.F, | 
[V:4] .A,,.A,, .A,,.A,, | 
[V:1] E4 | 
[V:2] ^CC CC | 
[V:3] =G,G, G,G, | 
[V:4] A,,A,, A,,A,, | 
[V:1] ^c2G2 | 
[V:2] z4 | 
[V:3] z4 | 
[V:4] A,4 | 
[V:1] E4 | 
[V:2] z4 | 
[V:3] G2E2 | 
[V:4] _B,2G,2 | 
[V:1] e2^c2 | 
[V:2] G2E2 | 
[V:3] z4 | 
[V:4] A,4 | 
[V:1] G4 | 
[V:2] z4 | 
[V:3] G2E2 | 
[V:4] _B,2G,2 | 
[V:1] g2e2 | 
[V:2] e2^c2 | 
[V:3] z4 | 
[V:4] A,4 | 
[V:1] ^c4 | 
[V:2] z4 | 
[V:3] G2E2 | 
[V:4] _B,2G,2 | 
[V:1] ge^c2 | 
[V:2] z4 | 
[V:3] z4 | 
[V:4] A,2_B,G, | 
[V:1] _bge2 | 
[V:2] z4 | 
[V:3] G,2_B,G, | 
[V:4] E,2G,E, | 
[V:1] _b4 | 
[V:2] G,C G,C | 
[V:3] E,4 | 
[V:4] C,4- | 
[V:1] a^g a=f | 
[V:2] A,C A,C | 
[V:3] =F,4 | 
[V:4] C,4- | 
[V:1] .e2.e2 | 
[V:2] _B,C B,C | 
[V:3] G,4 | 
[V:4] C,4- | 
[V:1] =f3g/a/ | 
[V:2] A,C A,C | 
[V:3] =F,4 | 
[V:4] C,4- | 
[V:1] _b4 | 
[V:2] G,C G,C | 
[V:3] E,4 | 
[V:4] C,4- | 
[V:1] a^g a=f | 
[V:2] A,C A,C | 
[V:3] =F,4 | 
[V:4] C,4- | 
[V:1] .e2.e2 | 
[V:2] _B,C B,C | 
[V:3] G,4 | 
[V:4] C,4 | 
[V:1] =f3e | 
[V:2] A,C A,C | 
[V:3] =F,4 | 
[V:4] =F,4 | 
[V:1] ^d4- | 
[V:2] A,C CC | 
[V:3] CA, A,A, | 
[V:4] F,F, F,F, | 
[V:1] d4 | 
[V:2] CC CC | 
[V:3] A,A, A,A, | 
[V:4] F,F, F,F, | 
[V:1] e3^c/A/ | 
[V:2] ^CC CC | 
[V:3] A,A, A,A, | 
[V:4] E,E, E,E, | 
[V:1] B4 | 
[V:2] DD DD | 
[V:3] ^G,G, G,G, | 
[V:4] E,E, E,E, | 
[V:1] ^c4- | 
[V:2] EG GG | 
[V:3] G,E EE | 
[V:4] A,,A, A,A, | 
[V:1] c4 | 
[V:2] GG GG | 
[V:3] EE EE | 
[V:4] ^A,A, A,A, | 
[V:1] d2e2 | 
[V:2] FF BB | 
[V:3] DD DD | 
[V:4] B,B, ^G,G, | 
[V:1] .f2.e2 | 
[V:2] AA GG | 
[V:3] DD ^CC | 
[V:4] =A,A, =A,,A,, | 
[V:1] d2z2 | 
[V:2] .F2.d2 | 
[V:3] .D2.D2 | 
[V:4] D,/E,/F,/G,/ A,/G,/F,/E,/ | 
[V:1] z4 | 
[V:2] f3e/d/ | 
[V:3] F3E/D/ | 
[V:4] D,/E,/F,/G,/ A,/B,/^C/D/ | 
[V:1] .a2.e'2 | 
[V:2] ^c/d/e/f/ g/f/e/d/ | 
[V:3] ^CG GG | 
[V:4] D,D, D,D, | 
[V:1] g'3f'/e'/ | 
[V:2] ^c/d/e/d/ c/A/B/c/ | 
[V:3] GG GG | 
[V:4] D,D, D,D, | 
[V:1] d'2z2 | 
[V:2] dA dd | 
[V:3] FA, DD | 
[V:4] D,,/E,,/F,,/G,,/ A,,/G,,/F,,/E,,/ | 
[V:1] z4 | 
[V:2] f3e/d/ | 
[V:3] F3E/D/ | 
[V:4] D,,/E,,/F,,/G,,/ A,,/B,,/^C,/D,/ | 
[V:1] aa e'e' | 
[V:2] ^c/d/e/f/ g/f/e/d/ | 
[V:3] ^C/D/E/F/ G/F/E/D/ | 
[V:4] D,,D, D,D, | 
[V:1] g'3f'/e'/ | 
[V:2] ^c/d/e/d/ c/A/B/c/ | 
[V:3] ^C/D/E/D/ C/A,/B,/C/ | 
[V:4] D,D, D,D, | 
[V:1] .d'e'/f'/ .g'f'/e'/ | 
[V:2] d^c2c | 
[V:3] DG2G | 
[V:4] D,,D, D,D, | 
[V:1] .d'e'/f'/ .g'f'/e'/ | 
[V:2] d^C2C | 
[V:3] FG,2G, | 
[V:4] D,,D, D,D, | 
[V:1] .d'2.a2 | 
[V:2] D2A2 | 
[V:3] F,2z2 | 
[V:4] D,,2z2 | 
[V:1] f4 | 
[V:2] F4 | 
[V:3] .A2.F2 | 
[V:4] .A,2.F,2 | 
[V:1] .a2.f2 | 
[V:2] A2F2 | 
[V:3] D4 | 
[V:4] D,4 | 
[V:1] d4 | 
[V:2] D4 | 
[V:3] .F2.D2 | 
[V:4] .F,2.D,2 | 
[V:1] .f2.d2 | 
[V:2] F2D2 | 
[V:3] A,4 | 
[V:4] A,,4 | 
[V:1] A4 | 
[V:2] A,4 | 
[V:3] .D2.A,2 | 
[V:4] .D,2.A,,2 | 
[V:1] .d.AF2 | 
[V:2] D2A,2- | 
[V:3] F,2F,2- | 
[V:4] F,,2.A,.F, | 
[V:1] .A.FD2 | 
[V:2] A,2A,2- | 
[V:3] F,2F,2- | 
[V:4] D,2.F,.D, | 
[V:1] .F.DA,2 | 
[V:2] A,2A,2- | 
[V:3] F,2F,2- | 
[V:4] A,,2.D,.A,, | 
[V:1] .A.FD2 | 
[V:2] A,2A,2- | 
[V:3] F,2F,2- | 
[V:4] F,,2.A,,.F,, | 
[V:1] .A.FD2 | 
[V:2] A,2A,2- | 
[V:3] F,2F,2- | 
[V:4] D,,2.A,,.F,, | 
[V:1] .A.FD2 | 
[V:2] A,2A,2- | 
[V:3] F,2F,2- | 
[V:4] D,,2.A,,.F,, | 
[V:1] .A.FD2- | 
[V:2] A,2A,2- | 
[V:3] F,2F,2- | 
[V:4] D,,4 | 
[V:1] D4 | 
[V:2] A,4- | 
[V:3] F,4- | 
[V:4] .A,,.F,,D,,2- | 
[V:1] AFD2- | 
[V:2] A,2A,2- | 
[V:3] F,2F,2- | 
[V:4] D,,4 | 
[V:1] D4 | 
[V:2] A,4- | 
[V:3] F,4- | 
[V:4] A,,F,,D,,2- | 
[V:1] AFC2- | 
[V:2] A,2A,2- | 
[V:3] F,2F,2- | 
[V:4] D,,4 | 
[V:1] !fermata!C4 | 
[V:2] !fermata!A,4 | 
[V:3] !fermata!F,4 | 
[V:4] C,A,,!fermata!D,,2 | 
[V:1] ._B,2._E2 | 
[V:2] .G,2._B,2 | 
[V:3] .G,2.G,2 | 
[V:4] ._E,,2._E,2 | 
[V:1] G3=F/_E/ | 
[V:2] _B,3B, | 
[V:3] G,3G, | 
[V:4] _E,3E, | 
[V:1] .D._E .=F.G | 
[V:2] ._B,.B, .B,.B, | 
[V:3] ._A,.G, .=F,._E, | 
[V:4] .F,._E, .D,.C, | 
[V:1] _Az2z | 
[V:2] _B,z2z | 
[V:3] D,z2z | 
[V:4] _B,,z2z | 
[V:1] ._B2.=f2 | 
[V:2] .D2._B2 | 
[V:3] .=F2.D2 | 
[V:4] ._B,2.B,2 | 
[V:1] _a3g/=f/ | 
[V:2] _B3B | 
[V:3] =F3_E/D/ | 
[V:4] _B,3_A, | 
[V:1] ._b.g ._a.=f | 
[V:2] ._B.B .B._A | 
[V:3] .G._E .=F.D | 
[V:4] .G,.C ._A,._B, | 
[V:1] ._eg/e/_B2- | 
[V:2] G2z G | 
[V:3] _E2z E | 
[V:4] _E,2z2 | 
[V:1] B_B/A/B2- | 
[V:2] _A2z .A | 
[V:3] D2z .D | 
[V:4] z4 | 
[V:1] B_B/c/ ._AA/B/ | 
[V:2] .G.G .C.=F | 
[V:3] ._E.=E .=F.D | 
[V:4] z4 | 
[V:1] .GG/_A/ .=FF/G/ | 
[V:2] ._B,._E .E.D | 
[V:3] ._E.C ._A,._B, | 
[V:4] z4 | 
[V:1] ._EG/E/_B,2- | 
[V:2] G,2z G, | 
[V:3] _E,2z E, | 
[V:4] z2z _E, | 
[V:1] B,_B,/A,/B,2- | 
[V:2] _A,2z A, | 
[V:3] =F,2z F, | 
[V:4] D,2z D, | 
[V:1] B,_B,/A,/B,2- | 
[V:2] G,2z _B, | 
[V:3] _E,2z G, | 
[V:4] _E,2z E, | 
[V:1] B,_B,/A,/ .B,.=B, | 
[V:2] =F2z F | 
[V:3] =F,2z F, | 
[V:4] _D,2z D, | 
[V:1] .CC/B,/ .C.D | 
[V:2] =E2z .c | 
[V:3] G,2z .=F, | 
[V:4] C,2z .C, | 
[V:1] ._EE/D/ .E.=E | 
[V:2] .c2z .c | 
[V:3] .G,2z .G, | 
[V:4] .C,2z ._B,, | 
[V:1] .=FF/E/ .F.G | 
[V:2] .c2z C | 
[V:3] ._A,2z C | 
[V:4] ._A,,2z =E, | 
[V:1] ._AA/G/ .A.=A | 
[V:2] C2z =F | 
[V:3] =F2z C | 
[V:4] =F, z z _E, | 
[V:1] ._BB/A/ .B.=B | 
[V:2] =F2z G | 
[V:3] D2z D | 
[V:4] D,2z =F, | 
[V:1] .cc/B/ .c.d | 
[V:2] G2z G | 
[V:3] _E2z =F | 
[V:4] _E,2z =B,, | 
[V:1] ._ee/d/ .e.=e | 
[V:2] G2z c | 
[V:3] _E2z C | 
[V:4] C,2z _B,, | 
[V:1] .=ff/e/ .f.^f | 
[V:2] c2z c | 
[V:3] C2z C | 
[V:4] A,,2z _A,, | 
[V:1] gf/g/ b/g/f/g/ | 
[V:2] B2D2 | 
[V:3] B,2B,2 | 
[V:4] G,,=B,, D,G, | 
[V:1] c'/g/f/g/ =f/_e/d/c/ | 
[V:2] z2_E2 | 
[V:3] z2C2 | 
[V:4] G,,C, _E,G, | 
[V:1] BF/G/ B/G/F/G/ | 
[V:2] z2[G2d2] | 
[V:3] z2B,2 | 
[V:4] G,,B,, D,G, | 
[V:1] c/G/F/G/ =F/_E/D/C/ | 
[V:2] z2[G2_e2] | 
[V:3] z2C2 | 
[V:4] G,,C, _E,G, | 
[V:1] G,f/g/ b/g/b/g/ | 
[V:2] z2D2 | 
[V:3] z2B,2 | 
[V:4] G,,B,, D,G, | 
[V:1] c'/g/f/g/ =f/_e/d/c/ | 
[V:2] z2_E2 | 
[V:3] z2C2 | 
[V:4] G,,C, _E,G, | 
[V:1] BF/G/ B/G/B/G/ | 
[V:2] z2[G2d2] | 
[V:3] z2B,2 | 
[V:4] G,,B,, D,G, | 
[V:1] c/G/F/G/ F/_E/D/C/ | 
[V:2] z2[G2_e2] | 
[V:3] z2C2 | 
[V:4] G,,C, _E,G, | 
[V:1] G,2B/G/F/G/ | 
[V:2] [G2d2]B,2 | 
[V:3] B,2G,2 | 
[V:4] G,,2z2 | 
[V:1] B/G/F/G/ B/G/F/G/ | 
[V:2] z4 | 
[V:3] z4 | 
[V:4] z4 | 
[V:1] d/B/^A/B/ d/B/A/B/ | 
[V:2] z2D2 | 
[V:3] z2B,2 | 
[V:4] G,,2z2 | 
[V:1] d/B/^A/B/ d/B/A/B/ | 
[V:2] z4 | 
[V:3] z4 | 
[V:4] z4 | 
[V:1] =f/d/^c/d/ f/d/c/d/ | 
[V:2] z2^E2 | 
[V:3] z2D2 | 
[V:4] G,,2z2 | 
[V:1] =f/d/^c/d/ f/d/c/d/ | 
[V:2] z4 | 
[V:3] z4 | 
[V:4] z4 | 
[V:1] a/=f/e/f/ a/g/f/e/ | 
[V:2] z4 | 
[V:3] z4 | 
[V:4] z4 | 
[V:1] d/c/B/A/ G/F/E/D/ | 
[V:2] z4 | 
[V:3] z4 | 
[V:4] z4 | 
[V:1] .C2.C2 | 
[V:2] z4 | 
[V:3] [E,G,][E,G,] [E,G,][E,G,] | 
[V:4] C,,C, C,C, | 
[V:1] E3D/C/ | 
[V:2] z4 | 
[V:3] [E,G,][E,G,] [E,G,][E,G,] | 
[V:4] C,C, C,C, | 
[V:1] .B,.C .D.E | 
[V:2] z4 | 
[V:3] [=F,G,][F,G,] [F,G,][F,G,] | 
[V:4] C,C, C,C, | 
[V:1] =F zz2 | 
[V:2] =fe dc | 
[V:3] [=F,G,][F,G,] [F,G,][F,G,] | 
[V:4] C,C, C,C, | 
[V:1] .G,2.D2 | 
[V:2] B2z2 | 
[V:3] [=F,G,][F,G,] [F,G,][F,G,] | 
[V:4] C,C, C,C, | 
[V:1] =F3E/D/ | 
[V:2] z4 | 
[V:3] [=F,G,][F,G,] [F,G,][F,G,] | 
[V:4] C,C, C,C, | 
[V:1] .G.E .G.E | 
[V:2] z4 | 
[V:3] [E,G,][E,G,] [E,G,][E,G,] | 
[V:4] C,C, C,C, | 
[V:1] Cz2z | 
[V:2] .g.e .g.e | 
[V:3] [E,G,][E,G,] [E,G,][E,G,] | 
[V:4] C,C, C,C, | 
[V:1] z4 | 
[V:2] .c2.G2 | 
[V:3] [E,G,][G,G] [G,G][G,G] | 
[V:4] .G,,2.C,2 | 
[V:1] z4 | 
[V:2] .c2e2- | 
[V:3] [G,G][G,G] [G,G][G,G] | 
[V:4] E,3D,/C,/ | 
[V:1] z4 | 
[V:2] ed/c/ Bc | 
[V:3] [G,G][G,G] [G,G][G,G] | 
[V:4] .B,,.C, .D,.E, | 
[V:1] .b.c' .d'.e' | 
[V:2] de=f z | 
[V:3] [G,G][G,G] [G,G][G,G] | 
[V:4] =F,z2z | 
[V:1] =f'2z2 | 
[V:2] z2.G2 | 
[V:3] [G,G][G,G] [G,G][G,G] | 
[V:4] .G,,2.D,2 | 
[V:1] z4 | 
[V:2] .d2=f2- | 
[V:3] [G,G][G,G] [G,G][G,G] | 
[V:4] =F,3E,/D,/ | 
[V:1] z4 | 
[V:2] =fe/d/ .c.d | 
[V:3] [G,G][G,G] [G,G][G,G] | 
[V:4] .C,.D, .E,.=F, | 
[V:1] c'd' e'=f' | 
[V:2] .e.=fg2 | 
[V:3] [G,G][G,G] .C.D | 
[V:4] G,4- | 
[V:1] g'4- | 
[V:2] z2.g.=f | 
[V:3] .E.=FG2 | 
[V:4] G,.=F, .E,.D, | 
[V:1] g'=f' e'd' | 
[V:2] .e.d .c z | 
[V:3] z2.A,.B, | 
[V:4] C,4 | 
[V:1] c'4 | 
[V:2] z2.e.d | 
[V:3] .C.DE2 | 
[V:4] .E,.D, .C,.B,, | 
[V:1] e'd' c'b | 
[V:2] .c.B .A z | 
[V:3] z2.F,.G, | 
[V:4] A,,4 | 
[V:1] a4 | 
[V:2] z2.c.B | 
[V:3] .A,.B,C2 | 
[V:4] .C,.B,, .A,,.G,, | 
[V:1] c'b ag | 
[V:2] .A.GF2 | 
[V:3] z2.D,.E, | 
[V:4] F,,4 | 
[V:1] f4 | 
[V:2] z2.A.G | 
[V:3] .F,.G,A,2 | 
[V:4] .A,,.G,, .F,,.E,, | 
[V:1] ag fe | 
[V:2] .F.ED2 | 
[V:3] z2.D,.E, | 
[V:4] D,,4 | 
[V:1] d4 | 
[V:2] z4 | 
[V:3] .F,.G, .A,.B, | 
[V:4] .D,,.E,, .F,,.G,, | 
[V:1] z4 | 
[V:2] z4 | 
[V:3] [D,4C4]- | 
[V:4] A,,B,, C,B,, | 
[V:1] z4 | 
[V:2] z4 | 
[V:3] [D,4C4]- | 
[V:4] C,B,, A,,G,, | 
[V:1] .d2.f2 | 
[V:2] z4 | 
[V:3] [D,2C2].D,.E, | 
[V:4] F,,E,, D,,^C,, | 
[V:1] a4 | 
[V:2] z4 | 
[V:3] .F,.G, .A,.B, | 
[V:4] D,,E,, F,,G,, | 
[V:1] z4 | 
[V:2] z4 | 
[V:3] [D,4C4]- | 
[V:4] A,,B,, C,B,, | 
[V:1] z4 | 
[V:2] z4 | 
[V:3] [D,4C4]- | 
[V:4] C,B,, A,,G,, | 
[V:1] .f2.a2 | 
[V:2] .D2.F2 | 
[V:3] [D,2C2].D,.E, | 
[V:4] F,,E,, D,,^C,, | 
[V:1] c'4 | 
[V:2] A4 | 
[V:3] .F,.G, .A,.B, | 
[V:4] D,,E,, F,,G,, | 
[V:1] z4 | 
[V:2] z4 | 
[V:3] [D,4C4]- | 
[V:4] A,,B,, C,^C, | 
[V:1] z4 | 
[V:2] z4 | 
[V:3] [D,4C4]- | 
[V:4] D,^C, D,C, | 
[V:1] .a2.c'2 | 
[V:2] .F2.A2 | 
[V:3] [D,4C4] | 
[V:4] D,^C, D,C, | 
[V:1] _e'2c'2 | 
[V:2] c4 | 
[V:3] .F,2.A,2 | 
[V:4] D,4- | 
[V:1] a4 | 
[V:2] _E2C2 | 
[V:3] C2A,2 | 
[V:4] D,4- | 
[V:1] c'2a2 | 
[V:2] A,4 | 
[V:3] F,4 | 
[V:4] D,4- | 
[V:1] f4 | 
[V:2] c2A2 | 
[V:3] _E2C2 | 
[V:4] D,4- | 
[V:1] c'2a2 | 
[V:2] F2_e2 | 
[V:3] A,2c2 | 
[V:4] D,4- | 
[V:1] f2_e2 | 
[V:2] c2A2 | 
[V:3] A2F2 | 
[V:4] D,4- | 
[V:1] c2A2 | 
[V:2] F2_E2 | 
[V:3] _E2C2 | 
[V:4] D,4- | 
[V:1] _B2G2 | 
[V:2] =E2^C2 | 
[V:3] ^C2_B,2 | 
[V:4] D,4- | 
[V:1] F2a2 | 
[V:2] D2_e2 | 
[V:3] A,2=c2 | 
[V:4] D,4- | 
[V:1] f2_e2 | 
[V:2] c2A2 | 
[V:3] A2F2 | 
[V:4] D,4- | 
[V:1] c2A2 | 
[V:2] F2_E2 | 
[V:3] _E2=C2 | 
[V:4] D,4- | 
[V:1] _B2G2 | 
[V:2] =E2^C2 | 
[V:3] ^C2_B,2 | 
[V:4] D,4- | 
[V:1] F4 | 
[V:2] D4 | 
[V:3] A,4 | 
[V:4] D,4 | 
[V:1] G4 | 
[V:2] ^C4 | 
[V:3] G,4 | 
[V:4] _E,4 | 
[V:1] F4 | 
[V:2] D4 | 
[V:3] A,4 | 
[V:4] D,4 | 
[V:1] G4 | 
[V:2] ^C4 | 
[V:3] G,4 | 
[V:4] _E,4 | 
[V:1] F4 | 
[V:2] D4 | 
[V:3] A,4 | 
[V:4] D,4 | 
[V:1] G4- | 
[V:2] ^C4- | 
[V:3] G,4- | 
[V:4] _E,4- | 
[V:1] G4- | 
[V:2] C4 | 
[V:3] G,4 | 
[V:4] E,4- | 
[V:1] !fermata!G4 | 
[V:2] !fermata!_B,4 | 
[V:3] !fermata!_D4 | 
[V:4] !fermata!E,4 | 
[V:1] ._E2._A2 | 
[V:2] .=C2.C2 | 
[V:3] ._E,2.E,2 | 
[V:4] ._A,,2.A,,2 | 
[V:1] c3_B/_A/ | 
[V:2] C3C | 
[V:3] _E,3E, | 
[V:4] _A,,3A,, | 
[V:1] .G._A ._B.c | 
[V:2] ._D.D .D.D | 
[V:3] ._E,.E, .E,.E, | 
[V:4] ._B,,.B,, .B,,.B,, | 
[V:1] _dz2z | 
[V:2] _D2z2 | 
[V:3] _E,2z2 | 
[V:4] _B,,2z2 | 
[V:1] .G._A ._B.c | 
[V:2] .G.G .G.G | 
[V:3] .=E.E .E.E | 
[V:4] ._B,.B, .B,.B, | 
[V:1] _cz2z | 
[V:2] G2z2 | 
[V:3] E2z2 | 
[V:4] _B,2z2 | 
[V:1] .^c.d .e.f | 
[V:2] .G.G .G.G | 
[V:3] .E.E .E.E | 
[V:4] .=A,.A, .A,.A, | 
[V:1] g2z2 | 
[V:2] G2z2 | 
[V:3] E2z2 | 
[V:4] A,2z2 | 
[V:1] .f2.g2 | 
[V:2] .c2.B2 | 
[V:3] .D2.D2 | 
[V:4] .A,2.G,2 | 
[V:1] .a2.b2 | 
[V:2] .A2.G2 | 
[V:3] .D2.D2 | 
[V:4] .F,2.E,2 | 
[V:1] c'4- | 
[V:2] F4- | 
[V:3] D4- | 
[V:4] D,4- | 
[V:1] !fermata!c'4 | 
[V:2] !fermata!F4 | 
[V:3] !fermata!D4 | 
[V:4] !fermata!D,4 | 
[V:1] z4 | 
[V:2] z4 | 
[V:3] z4 | 
[V:4] .D,2.G,2 | 
[V:1] z4 | 
[V:2] z4 | 
[V:3] z4 | 
[V:4] B,3A,/G,/ | 
[V:1] z2.F.G | 
[V:2] z4 | 
[V:3] z4 | 
[V:4] .F,.G, .A,.B, | 
[V:1] .A.B .c.^c | 
[V:2] z4 | 
[V:3] z4 | 
[V:4] C2z2 | 
[V:1] de fg | 
[V:2] .D2.G2 | 
[V:3] .B,2.B,2 | 
[V:4] .G,2.G,2 | 
[V:1] a^a bg | 
[V:2] B3A/G/ | 
[V:3] G3F/E/ | 
[V:4] E,3F,/G,/ | 
[V:1] fa ge | 
[V:2] .F.A .G.E | 
[V:3] .D.F .E.^C | 
[V:4] .A,.A, .A,,.A,, | 
[V:1] dF AD | 
[V:2] F2z2 | 
[V:3] D2z2 | 
[V:4] D,2z2 | 
[V:1] z4 | 
[V:2] z4 | 
[V:3] z4 | 
[V:4] .D,2.A,2 | 
[V:1] z a f^d | 
[V:2] z4 | 
[V:3] z4 | 
[V:4] C3B,/A,/ | 
[V:1] eg fe | 
[V:2] z4 | 
[V:3] z4 | 
[V:4] G,G, A,^A, | 
[V:1] ^d^c Bc | 
[V:2] z4 | 
[V:3] z4 | 
[V:4] B,2z2 | 
[V:1] ^de fg | 
[V:2] .F2.A2 | 
[V:3] .^D2.F2 | 
[V:4] .B,2.B,2 | 
[V:1] ab ^c'^d' | 
[V:2] c3B/A/ | 
[V:3] A3G/F/ | 
[V:4] B,3B, | 
[V:1] e'g' f'^d' | 
[V:2] .G.B .c.B | 
[V:3] .E.G .A.A | 
[V:4] .E.E .B,.B, | 
[V:1] e'g be | 
[V:2] B2z2 | 
[V:3] G2z2 | 
[V:4] G,2z2 | 
[V:1] =fB d=F | 
[V:2] =F2E/D/C/B,/ | 
[V:3] D,4 | 
[V:4] G,,4 | 
[V:1] Ec Ge | 
[V:2] C/B,/C/D/ E z | 
[V:3] E,2z2 | 
[V:4] C,2z2 | 
[V:1] c'f ac | 
[V:2] c3A/F/ | 
[V:3] F,4- | 
[V:4] D,4- | 
[V:1] fA cF | 
[V:2] .D.D .D.D | 
[V:3] F,.D, .D.C | 
[V:4] D,.C, .B,,.A,, | 
[V:1] .d2.g2 | 
[V:2] .D2.G2 | 
[V:3] B,B, B,B, | 
[V:4] G,,G, G,G, | 
[V:1] b3a/g/ | 
[V:2] B3A/G/ | 
[V:3] B,B, B,B, | 
[V:4] G,G, G,G, | 
[V:1] .f.g .a.b | 
[V:2] .F.G .A.B | 
[V:3] CB, A,G, | 
[V:4] A,G, F,E, | 
[V:1] c'2z2 | 
[V:2] c2z2 | 
[V:3] F,/A,/D/F/ A/F/D/A,/ | 
[V:4] D,/F,/A,/D/ F/D/A,/F,/ | 
[V:1] .d2.a2 | 
[V:2] .D2.A2 | 
[V:3] F,F, F,F, | 
[V:4] D,D, D,D, | 
[V:1] c'3b/a/ | 
[V:2] c3B/A/ | 
[V:3] F,F, F,F, | 
[V:4] D,D, D,C, | 
[V:1] .d'.b .c'.a | 
[V:2] .d.B .c.A | 
[V:3] G,G AF | 
[V:4] B,,E, D,D, | 
[V:1] .gb/g/d2- | 
[V:2] G2z B | 
[V:3] B,2z G | 
[V:4] G,,2z2 | 
[V:1] dd/^c/d2- | 
[V:2] c2z c | 
[V:3] F2z F | 
[V:4] z4 | 
[V:1] dd/e/ =cc/d/ | 
[V:2] .B.B .G.A | 
[V:3] .G.=F .E.^F | 
[V:4] z4 | 
[V:1] BB/c/ AA/B/ | 
[V:2] .B.G .E.F | 
[V:3] .G.E .C.D | 
[V:4] z4 | 
[V:1] GB/G/D2- | 
[V:2] B,2z B, | 
[V:3] G,2z G, | 
[V:4] G,,2z G, | 
[V:1] DD/^C/D2- | 
[V:2] C2z C | 
[V:3] A,2z A, | 
[V:4] F,2z F, | 
[V:1] DD/^C/ D/=C/B,/A,/ | 
[V:2] B,D DD | 
[V:3] G,B, B,B, | 
[V:4] G,,G, G,G, | 
[V:1] .G,G/F/ G/A/B/^c/ | 
[V:2] GG GG | 
[V:3] B,A, A,A, | 
[V:4] E,,E, E,E, | 
[V:1] .dd/^c/ d/e/f/d/ | 
[V:2] F2z2 | 
[V:3] A,2z2 | 
[V:4] D,2z2 | 
[V:1] .gg/f/ g/a/b/^c'/ | 
[V:2] z4 | 
[V:3] z4 | 
[V:4] z4 | 
[V:1] d'2z2 | 
[V:2] z [_B,D] [B,D][B,D] | 
[V:3] z G, G,G, | 
[V:4] .D,,2.G,,2 | 
[V:1] z4 | 
[V:2] [_B,D][B,D] [B,D][B,D] | 
[V:3] G,G, G,G, | 
[V:4] _B,,3A,,/G,,/ | 
[V:1] d4- | 
[V:2] [CD][CD] [CD][CD] | 
[V:3] A,A, A,A, | 
[V:4] .F,,.G,, .A,,._B,, | 
[V:1] d_e de | 
[V:2] [CD][CD] [CD][CD] | 
[V:3] A,A, A,A, | 
[V:4] C,2z2 | 
[V:1] d2z2 | 
[V:2] [A,D][A,D] [A,D][A,D] | 
[V:3] F,F, F,F, | 
[V:4] D,,2.A,,2 | 
[V:1] z4 | 
[V:2] [A,D][A,D] [A,D][A,D] | 
[V:3] F,F, F,F, | 
[V:4] C,3_B,,/A,,/ | 
[V:1] g4- | 
[V:2] [_B,D][B,D] [B,D][B,D] | 
[V:3] G,G, G,G, | 
[V:4] .G,,.A,, ._B,,.C, | 
[V:1] gf gf | 
[V:2] [_B,D][B,D] [B,D][B,D] | 
[V:3] G,G, G,G, | 
[V:4] D,2z2 | 
[V:1] g2_b2- | 
[V:2] [_B,G][B,G] [B,G][B,G] | 
[V:3] G,_E EE | 
[V:4] _E,=F, G,_A, | 
[V:1] ba _ba | 
[V:2] [_B,G][B,G] [B,G][B,G] | 
[V:3] _EE EE | 
[V:4] _B,2z2 | 
[V:1] _b2_B2- | 
[V:2] [_B,G] zG2- | 
[V:3] .=E.D .E.F | 
[V:4] .^C,.D, .=E,.F, | 
[V:1] BA ._B.B | 
[V:2] GF .G.G | 
[V:3] G2^C2 | 
[V:4] G,2^C,2 | 
[V:1] ADd2- | 
[V:2] F2z .F | 
[V:3] D2z .D | 
[V:4] D,2z .D, | 
[V:1] dEe2- | 
[V:2] .G,2z .G | 
[V:3] .^C2z .C | 
[V:4] .D,,2z .D, | 
[V:1] eFf2- | 
[V:2] .A,2z .A | 
[V:3] .=C2z .C | 
[V:4] .D,,2z .D, | 
[V:1] fGg2- | 
[V:2] .B,2z .B | 
[V:3] .B,2z .B, | 
[V:4] .D,,2z .D, | 
[V:1] gA .a.g | 
[V:2] .C2z2 | 
[V:3] .F,2z2 | 
[V:4] .D,,2z2 | 
[V:1] .f.e .d.c | 
[V:2] z4 | 
[V:3] z4 | 
[V:4] z4 | 
[V:1] BB2B- | 
[V:2] .G,.B, .D.F | 
[V:3] z4 | 
[V:4] z4 | 
[V:1] BB c/B/A/B/ | 
[V:2] .G.F .G.E | 
[V:3] z4 | 
[V:4] z4 | 
[V:1] cA BG | 
[V:2] .C z .^C z | 
[V:3] z4 | 
[V:4] z4 | 
[V:1] GF ED | 
[V:2] .D2z2 | 
[V:3] z4 | 
[V:4] z4 | 
[V:1] dd2d- | 
[V:2] .B,.D .G.A | 
[V:3] .G,.B, .D.F | 
[V:4] z4 | 
[V:1] d.d e/d/^c/d/ | 
[V:2] .B.A .B.G | 
[V:3] .G.F .G.E | 
[V:4] z4 | 
[V:1] .e.=c .A.F | 
[V:2] .E.E .C.A, | 
[V:3] .C.A, .D.D, | 
[V:4] z4 | 
[V:1] G2z2 | 
[V:2] B,/B/A/G/ F/E/D/C/ | 
[V:3] G,2z2 | 
[V:4] z4 | 
[V:1] z4 | 
[V:2] .B,B,2.B,- | 
[V:3] z4 | 
[V:4] .G,,.B,, .D,.F, | 
[V:1] z4 | 
[V:2] B,.B, C/B,/A,/B,/ | 
[V:3] z4 | 
[V:4] .G,.F, .G,.G, | 
[V:1] .c'.a .f.c | 
[V:2] C2z2 | 
[V:3] .A,.C .F.G | 
[V:4] A,2z2 | 
[V:1] cc d/c/B/c/ | 
[V:2] z4 | 
[V:3] AA, A,A, | 
[V:4] z4 | 
[V:1] d2z2 | 
[V:2] DD2D- | 
[V:3] B,2z2 | 
[V:4] B,,D, G,A, | 
[V:1] z4 | 
[V:2] DD E/D/C/D/ | 
[V:3] z4 | 
[V:4] B,^A, B,B, | 
[V:1] .e.c .G.E | 
[V:2] E2z2 | 
[V:3] .C,.E, .G,.B, | 
[V:4] C2z2 | 
[V:1] EE F/E/^D/E/ | 
[V:2] z4 | 
[V:3] CC CC | 
[V:4] z4 | 
[V:1] FF G/F/E/F/ | 
[V:2] z2C2 | 
[V:3] C2A,2 | 
[V:4] D,2z2 | 
[V:1] GG A/G/F/G/ | 
[V:2] z2B,2 | 
[V:3] z2G,2 | 
[V:4] D,2z2 | 
[V:1] AA B/A/^G/A/ | 
[V:2] z2A,2 | 
[V:3] z2F,2 | 
[V:4] D,2z2 | 
[V:1] BB c/B/A/B/ | 
[V:2] z2G2 | 
[V:3] z2E,2 | 
[V:4] D,2z2 | 
[V:1] c2A2 | 
[V:2] F2z2 | 
[V:3] D,4 | 
[V:4] D,,4 | 
[V:1] F4 | 
[V:2] C2A,2 | 
[V:3] _E,2C,2 | 
[V:4] _E,,2C,,2 | 
[V:1] f2c2 | 
[V:2] F4 | 
[V:3] D,4 | 
[V:4] D,,4 | 
[V:1] A4 | 
[V:2] C2A,2 | 
[V:3] _E,2C,2 | 
[V:4] _E,,2C,,2 | 
[V:1] a2f2 | 
[V:2] F4 | 
[V:3] D,4 | 
[V:4] D,,4 | 
[V:1] c4 | 
[V:2] C2A,2 | 
[V:3] _E,2C,2 | 
[V:4] _D,,2C,,2 | 
[V:1] c'2a2 | 
[V:2] F4 | 
[V:3] D,4 | 
[V:4] D,,4 | 
[V:1] f4 | 
[V:2] C2A,2 | 
[V:3] _E,2C,2 | 
[V:4] _E,,2C,,2 | 
[V:1] _bg e^c | 
[V:2] [_B,4G4]- | 
[V:3] ^C,E, G,_B, | 
[V:4] ^C,,E,, G,,_B,, | 
[V:1] _BG E^C | 
[V:2] [B,G][_B,G] [B,G][B,G] | 
[V:3] ^CE GE | 
[V:4] ^C,E, G,E, | 
[V:1] D3=B,/G,/ | 
[V:2] [B,=G]B, B,B, | 
[V:3] DG, G,G, | 
[V:4] D,D, D,D, | 
[V:1] A,4 | 
[V:2] CC CC | 
[V:3] F,F, F,F, | 
[V:4] D,D, D,D, | 
[V:1] c2A2 | 
[V:2] z4 | 
[V:3] z4 | 
[V:4] D4 | 
[V:1] F4 | 
[V:2] z4 | 
[V:3] c2A2 | 
[V:4] _E2C2 | 
[V:1] f2c2 | 
[V:2] c2A2 | 
[V:3] z4 | 
[V:4] D4 | 
[V:1] A4 | 
[V:2] z4 | 
[V:3] c2A2 | 
[V:4] _E2C2 | 
[V:1] a2f2 | 
[V:2] c2A2 | 
[V:3] z4 | 
[V:4] D4 | 
[V:1] c4 | 
[V:2] z4 | 
[V:3] c2A2 | 
[V:4] _E2C2 | 
[V:1] c'af2 | 
[V:2] z4 | 
[V:3] z4 | 
[V:4] D2_EC | 
[V:1] _e'c'a2 | 
[V:2] z4 | 
[V:3] C2_EC | 
[V:4] A,2CA, | 
[V:1] _e'4 | 
[V:2] C=F CF | 
[V:3] A,4 | 
[V:4] =F,4- | 
[V:1] d'^c' d'_b | 
[V:2] D=F DF | 
[V:3] _B,4 | 
[V:4] ^E,4- | 
[V:1] .a2.a2 | 
[V:2] _E=F EF | 
[V:3] C4 | 
[V:4] E,4- | 
[V:1] _b3=c'/d'/ | 
[V:2] D=F DF | 
[V:3] _B,4 | 
[V:4] E,4- | 
[V:1] _e'4 | 
[V:2] C=F CF | 
[V:3] A,4 | 
[V:4] E,4- | 
[V:1] d'^c' d'_b | 
[V:2] D=F DF | 
[V:3] _B,4 | 
[V:4] E,4- | 
[V:1] .a2.a2 | 
[V:2] _E=F EF | 
[V:3] C4 | 
[V:4] E,4 | 
[V:1] _b3a | 
[V:2] D=F DF | 
[V:3] _B,4 | 
[V:4] _B,,4- | 
[V:1] ^g4- | 
[V:2] D=F FF | 
[V:3] _B,D DD | 
[V:4] B,,_B, B,B, | 
[V:1] g4 | 
[V:2] =FF FF | 
[V:3] DD DD | 
[V:4] _B,B, B,B, | 
[V:1] a3f/d/ | 
[V:2] FF FF | 
[V:3] DD DD | 
[V:4] A,A, A,A, | 
[V:1] e4 | 
[V:2] GG GG | 
[V:3] ^CC CC | 
[V:4] A,A, A,A, | 
[V:1] f4- | 
[V:2] AC CC | 
[V:3] CA, A,A, | 
[V:4] D,D, D,D, | 
[V:1] f4 | 
[V:2] CC CC | 
[V:3] A,A, A,A, | 
[V:4] ^D,D, D,D, | 
[V:1] g2a2 | 
[V:2] B,B, EE | 
[V:3] G,G, EE | 
[V:4] E,E, ^C,C, | 
[V:1] b2a2 | 
[V:2] GG FF | 
[V:3] DD CC | 
[V:4] D,D, D,,D,, | 
[V:1] .g2z2 | 
[V:2] .G2.G2 | 
[V:3] B,2z2 | 
[V:4] G,,/A,,/B,,/C,/ D,/C,/B,,/A,,/ | 
[V:1] z4 | 
[V:2] B3A/G/ | 
[V:3] z4 | 
[V:4] G,,/A,,/B,,/C,/ D,/E,/F,/G,/ | 
[V:1] .d2a2 | 
[V:2] F/G/A/B/ c/B/A/G/ | 
[V:3] CC CC | 
[V:4] G,,G, G,G, | 
[V:1] c'3b/a/ | 
[V:2] F/G/A/G/ F/D/E/F/ | 
[V:3] CC CC | 
[V:4] G,G, G,G, | 
[V:1] g2z2 | 
[V:2] .G.d .g.g | 
[V:3] B,D GG | 
[V:4] G,,/A,,/B,,/C,/ D,/C,/B,,/A,,/ | 
[V:1] z4 | 
[V:2] b3a/g/ | 
[V:3] B3A/G/ | 
[V:4] G,,/A,,/B,,/C,/ D,/E,/F,/G,/ | 
[V:1] .d.d .a.a | 
[V:2] .fA/B/ c/B/A/G/ | 
[V:3] .FA,/B,/ C/B,/A,/G,/ | 
[V:4] G,,G,, G,,G,, | 
[V:1] c'3b/a/ | 
[V:2] F/G/A/G/ F/D/E/F/ | 
[V:3] F,/G,/A,/G,/ F,/D,/E,/F,/ | 
[V:4] G,,G,, G,,G,, | 
[V:1] .ga/b/ .c'b/a/ | 
[V:2] GF2F | 
[V:3] G,C2C | 
[V:4] G,,G, G,G, | 
[V:1] .ga/b/ .c'b/a/ | 
[V:2] GF2F | 
[V:3] B,C2C | 
[V:4] G,,G, G,G, | 
[V:1] .gd'2d'- | 
[V:2] .GA/B/ .cB/A/ | 
[V:3] .B,A,/B,/ .CB,/A,/ | 
[V:4] .G,,F,,/E,,/ .D,,E,,/F,,/ | 
[V:1] d'd'2d'- | 
[V:2] .GA/B/ .cB/A/ | 
[V:3] .G,A,/B,/ .CB,/A,/ | 
[V:4] .G,,F,,/E,,/ .D,,E,,/F,,/ | 
[V:1] d'2b2 | 
[V:2] .G2.B2 | 
[V:3] .G,2z2 | 
[V:4] .G,,2z2 | 
[V:1] g4 | 
[V:2] G4 | 
[V:3] .d2.B2 | 
[V:4] .D2.B,2 | 
[V:1] .b2.g2 | 
[V:2] .B2.G2 | 
[V:3] G4 | 
[V:4] G,4 | 
[V:1] d4 | 
[V:2] D4 | 
[V:3] .B2.G2 | 
[V:4] .B,2.G,2 | 
[V:1] .g2.d2 | 
[V:2] .G2.D2 | 
[V:3] D4 | 
[V:4] D,4 | 
[V:1] B4 | 
[V:2] B,4 | 
[V:3] .G2.D2 | 
[V:4] .G,2.D,2 | 
[V:1] .d.BG2 | 
[V:2] D2D2- | 
[V:3] B,2B,2- | 
[V:4] B,,2DB, | 
[V:1] BGD2 | 
[V:2] D2D2- | 
[V:3] B,2B,2- | 
[V:4] G,2B,G, | 
[V:1] GDB,2 | 
[V:2] D2D2- | 
[V:3] B,2B,2- | 
[V:4] D,2G,D, | 
[V:1] DB,G,2 | 
[V:2] D2D2- | 
[V:3] B,2B,2- | 
[V:4] B,,2D,B,, | 
[V:1] DB,G,2 | 
[V:2] D2D2- | 
[V:3] B,2B,2- | 
[V:4] G,,2D,B,, | 
[V:1] DB,G,2 | 
[V:2] D2D2- | 
[V:3] B,2B,2- | 
[V:4] G,,2D,B,, | 
[V:1] DB,G,2- | 
[V:2] D2D2- | 
[V:3] B,2B,2- | 
[V:4] G,,4 | 
[V:1] G,4 | 
[V:2] D4- | 
[V:3] B,4- | 
[V:4] D,B,,G,,2- | 
[V:1] DB,G,2- | 
[V:2] D2D2- | 
[V:3] B,2B,2- | 
[V:4] G,,4 | 
[V:1] G,4 | 
[V:2] D4- | 
[V:3] B,4- | 
[V:4] D,B,,G,,2- | 
[V:1] =FDG,2- | 
[V:2] D2D2- | 
[V:3] B,2B,2- | 
[V:4] G,,4 | 
[V:1] !fermata!G,4 | 
[V:2] !fermata!D4 | 
[V:3] !fermata!B,4 | 
[V:4] =F,D,!fermata!G,,2 | 
[V:1] .G2.c2 | 
[V:2] .E2.G2 | 
[V:3] .C2.E2 | 
[V:4] .C,2.C2 | 
[V:1] e3d/c/ | 
[V:2] G3G | 
[V:3] E3E | 
[V:4] C3C | 
[V:1] .B.c .d.e | 
[V:2] .G.G .G.G | 
[V:3] .^E.=E .D.C | 
[V:4] .D.C .B,.A, | 
[V:1] =fz2z | 
[V:2] G2z2 | 
[V:3] B,2z2 | 
[V:4] G,2z2 | 
[V:1] .G2.c2 | 
[V:2] .G2.G2 | 
[V:3] .E2.E2 | 
[V:4] .C,2.C2 | 
[V:1] e4 | 
[V:2] G4 | 
[V:3] E4 | 
[V:4] C4 | 
[V:1] .D2.A2 | 
[V:2] .D2.D2 | 
[V:3] .A,2.A,2 | 
[V:4] .F,,2.F,2 | 
[V:1] c4 | 
[V:2] D4 | 
[V:3] A,3F, | 
[V:4] F,3D, | 
[V:1] .B2.g2 | 
[V:2] .D2.d2 | 
[V:3] .B,2.B2 | 
[V:4] .G,2[K:clef=tenor].G2 | 
[V:1] b3a/g/ | 
[V:2] d3d | 
[V:3] B3B | 
[V:4] G3G | 
[V:1] .f.g .a.b | 
[V:2] .d.d .d.d | 
[V:3] .c.B .A.G | 
[V:4] .A.G .F.E | 
[V:1] .c'2z2 | 
[V:2] .d2z2 | 
[V:3] .F2z2 | 
[V:4] .D2z2 | 
[V:1] .d2.a2 | 
[V:2] .A2.d2 | 
[V:3] .F2.F2 | 
[V:4] [K:clef=bass].D,2.D2 | 
[V:1] c'3b/a/ | 
[V:2] d3d | 
[V:3] F3F | 
[V:4] D3C | 
[V:1] .d'.b .c'.a | 
[V:2] .d.B .c.A | 
[V:3] .G.G .A.F | 
[V:4] .B,.E .C.D | 
[V:1] .d'.b .c'.a | 
[V:2] .d.B .c.A | 
[V:3] .G.G .A.F | 
[V:4] .B,.E .C.D | 
[V:1] .d'.b .c'.a | 
[V:2] .d.g .e.f | 
[V:3] .G.G .E.F | 
[V:4] .B,.E, .C,.D, | 
[V:1] .d'.b .c'.a | 
[V:2] .g.g .e.f | 
[V:3] .G.G .E.F | 
[V:4] .B,,.E, .C,.D, | 
[V:1] d'/d'/b/b/ c'/c'/a/a/ | 
[V:2] g/g/g/g/ e/e/f/f/ | 
[V:3] G/G/G/G/ E/E/F/F/ | 
[V:4] B,,/B,,/E,/E,/ C,/C,/D,/D,/ | 
[V:1] d'/d'/b/b/ c'/c'/a/a/ | 
[V:2] g/g/g/g/ e/e/f/f/ | 
[V:3] G/G/G/G/ E/E/F/F/ | 
[V:4] B,,/B,,/E,/E,/ C,/C,/D,/D,/ | 
[V:1] d'/d'/b/b/ g/g/d/d/ | 
[V:2] gB/B/ G/G/D/D/ | 
[V:3] G/G/B/B/ G/G/D/D/ | 
[V:4] G,,B, G,D, | 
[V:1] B/B/G/G/ D[Af] | 
[V:2] B,/B,/G,/G,/ D/D/c/c/ | 
[V:3] B,/B,/G,/G,/ D/D/D,/D,/ | 
[V:4] B,,G,, D,D,, | 
[V:1] [B2g2]z2 | 
[V:2] [D2B2]z2 | 
[V:3] G,2z2 | 
[V:4] G,,2z2 | 
[V:1] [G2d2b2]z2 | 
[V:2] [B2g2]z2 | 
[V:3] G2z2 | 
[V:4] G,2z2 | 
[V:1] G,2z2 |]  
[V:2] G,2z2 |]  
[V:3] G,2z2 |]  
[V:4] G,,2z2 |]  


